public/icons/collect.svg

<svg width="24" height="24" viewBox="0 0 24 24" fill="none" xmlns="http://www.w3.org/2000/svg">
<g id="Actions &#38; UI/bookmark-full">
<path id="Vector 524 (Stroke)" fill-rule="evenodd" clip-rule="evenodd" d="M7 5V18.865L12 14.6983L17 18.865V5H7ZM5 4.5C5 3.67157 5.67157 3 6.5 3H17.5C18.3284 3 19 3.67157 19 4.5V19.9325C19 21.2042 17.5167 21.899 16.5397 21.0848L12 17.3017L7.46028 21.0848C6.48329 21.899 5 21.2042 5 19.9325V4.5Z" fill="#61646B"/>
</g>
</svg>

<svg xmlns="http://www.w3.org/2000/svg" width="24" height="24" fill="none"><path fill="#61646B" fill-rule="evenodd" d="M7 5v13.865l5-4.167 5 4.167V5H7Zm-2-.5A1.5 1.5 0 0 1 6.5 3h11A1.5 1.5 0 0 1 19 4.5v15.433c0 1.271-1.483 1.966-2.46 1.152L12 17.302l-4.54 3.783c-.977.814-2.46.12-2.46-1.152V4.5Z" clip-rule="evenodd"/></svg>
